X:4739
L:1/8
M:6/8
K:G
 B | d2 B d2 B | G2 G GAB | c2 A c2 A | FGA D3 | d2 B g2 d | e2 B g2 e | dec BcA | G2 G G2 :: D | 
 DFA cAF | GBd dBG | DFA cAF | GBd dBG | ece ege | dBd dgd | edc BcA | G2 G G2 :|

